assets/icon-perfume.svg

<svg
  class="icon icon-accordion icon-perfume"
  aria-hidden="true"
  focusable="false"
  xmlns="http://www.w3.org/2000/svg"
  width="20"
  height="20"
  viewBox="0 0 20 20"
>
  <path d="M14.3418 4.01136C13.9848 3.73496 12.6615 3.7584 11.331 3.78196C10.9574 3.78858 10.5832 3.79521 10.2297 3.79521C9.88584 3.79521 9.51668 3.78621 9.14346 3.77711C7.90091 3.74682 6.61334 3.71544 6.06507 4.01135C3.48159 5.40609 1.79797 8.51637 1.79797 11.5832C1.79797 14.7181 3.62382 17.4403 6.30228 18.8076C7.47516 19.4063 8.81154 19.7452 10.2297 19.7452C11.6478 19.7452 12.9842 19.4063 14.1571 18.8076C16.8356 17.4403 18.6614 14.7181 18.6614 11.5832C18.6614 8.51637 16.9253 5.4061 14.3418 4.01136ZM13.7989 4.85466C13.7595 4.84463 13.6961 4.83194 13.6031 4.81974C13.3808 4.79058 13.0786 4.77518 12.7062 4.77044C12.27 4.76489 11.8342 4.77295 11.3816 4.78132C11.0119 4.78816 10.631 4.79521 10.2297 4.79521C9.873 4.79521 9.49181 4.78591 9.12145 4.77687C9.08988 4.7761 9.0584 4.77533 9.02701 4.77457C8.62113 4.76474 8.22906 4.75612 7.86427 4.75895C7.49696 4.7618 7.18238 4.77625 6.93082 4.80758C6.80621 4.82309 6.70953 4.84128 6.63756 4.85985C6.57251 4.87665 6.54392 4.88963 6.54011 4.89136C6.53955 4.89162 6.53962 4.89163 6.54011 4.89136C4.31953 6.09024 2.79797 8.83678 2.79797 11.5832C2.79797 14.3156 4.38864 16.708 6.75693 17.9169C7.7914 18.4449 8.97223 18.7452 10.2297 18.7452C11.4871 18.7452 12.668 18.4449 13.7024 17.9169C16.0707 16.708 17.6614 14.3156 17.6614 11.5832C17.6614 8.84882 16.0972 6.09543 13.8668 4.89131L13.7989 4.85466ZM6.54011 4.89136C6.53955 4.89162 6.53962 4.89163 6.54011 4.89136Z" fill-rule="evenodd" />
  <path d="M10.7202 1.18872H9.73911C9.18683 1.18872 8.73911 1.63644 8.73911 2.18872V3.75251H11.7202V2.18872C11.7202 1.63644 11.2725 1.18872 10.7202 1.18872ZM9.73911 0.188721C8.63454 0.188721 7.73911 1.08415 7.73911 2.18872V4.75251H12.7202V2.18872C12.7202 1.08415 11.8248 0.188721 10.7202 0.188721H9.73911Z" fill-rule="evenodd" />
  <path d="M13.4614 8.96045L13.5166 8.96114L13.5717 8.96311L13.6267 8.9662L13.6815 8.97039L13.736 8.97567L13.7904 8.98201L13.8444 8.98939L13.8981 8.99778L13.9514 9.00715L14.0044 9.01746L14.0569 9.02867L14.1091 9.04076L14.1607 9.05367L14.212 9.06738L14.2627 9.08184L14.313 9.097L14.3628 9.11283L14.4122 9.12929L14.461 9.14634L14.5094 9.16393L14.5573 9.18204L14.6048 9.20061L14.6518 9.21959L14.6983 9.23898L14.7444 9.25871L14.7901 9.27876L14.8354 9.29908L14.8802 9.31965L14.9246 9.34041L14.9686 9.36133L15.0123 9.38239L15.0555 9.40353L15.0983 9.42474L15.1408 9.44596L15.1829 9.46718L15.2246 9.48834L15.2651 9.50901L15.3877 9.57183L15.5061 9.63227L15.5075 9.633L15.5448 9.65185L15.5466 9.65275L15.5832 9.67107L15.5854 9.67216L15.6211 9.68993L15.6237 9.6912L15.6587 9.70839L15.6617 9.70983L15.6959 9.72641L15.6993 9.72803L15.7327 9.74399L15.7364 9.74577L15.7711 9.76204L15.8073 9.77873L15.843 9.79484L15.8784 9.81047L15.9132 9.82547L15.9476 9.83991L15.9816 9.85375L16.0151 9.86697L16.0482 9.87957L16.0808 9.89151L16.1129 9.90284L16.1445 9.9135L16.1757 9.92352L16.2064 9.93288L16.2366 9.9416L16.2664 9.94967L16.2957 9.9571L16.3246 9.9639L16.353 9.97008L16.3811 9.97564L16.4087 9.9806L16.436 9.98497L16.463 9.98876L16.4897 9.99198L16.5162 9.99463L16.5424 9.99674L16.5685 9.9983L16.5944 9.99933L16.6203 9.99982L16.6462 9.99979L16.6721 9.99922L16.6981 9.99812L16.7242 9.99648L16.7505 9.99429L16.7769 9.99156L16.8037 9.98826L16.8307 9.98439L16.8581 9.97994L16.8858 9.97489L16.9139 9.96924L16.9424 9.96298L16.9713 9.95609L17.0007 9.94857L17.0305 9.9404L17.0608 9.9316L17.0916 9.92214L17.1228 9.91203L17.1545 9.90127L17.1867 9.88986L17.2194 9.87781L17.2525 9.86514L17.2861 9.85182L17.3201 9.8379L17.3546 9.82339L17.3896 9.80827L17.4249 9.79261L17.4607 9.77639L17.499 9.7587L17.5317 9.74329L17.5354 9.74153L17.5689 9.72548L17.5722 9.72389L17.6066 9.70721L17.6095 9.7058L17.6446 9.68853L17.6471 9.68728L17.683 9.66943L17.6851 9.66837L17.7218 9.64998L17.7235 9.64909L17.7609 9.63017L17.7623 9.62948L17.8005 9.61007L17.841 9.58936L18.4676 10.481L18.4271 10.5017L18.3855 10.5229L18.3842 10.5236L18.3436 10.5441L18.3419 10.5449L18.3013 10.5653L18.2992 10.5663L18.2587 10.5865L18.2562 10.5877L18.2127 10.6091L18.1689 10.6304L18.1247 10.6515L18.08 10.6725L18.035 10.6933L17.9895 10.7139L17.9436 10.7342L17.8972 10.7542L17.8504 10.7739L17.8032 10.7932L17.7555 10.8121L17.7073 10.8305L17.6587 10.8483L17.6096 10.8657L17.56 10.8825L17.5099 10.8986L17.4594 10.9141L17.4084 10.9288L17.3569 10.9428L17.305 10.956L17.2526 10.9684L17.1998 10.9799L17.1467 10.9904L17.0931 11.0001L17.0392 11.0087L16.985 11.0163L16.9306 11.0229L16.8759 11.0284L16.821 11.0328L16.766 11.0362L16.7108 11.0383L16.6556 11.0394L16.6004 11.0393L16.5453 11.0381L16.4902 11.0358L16.4353 11.0324L16.3806 11.0278L16.3261 11.0222L16.2718 11.0155L16.2179 11.0078L16.1643 10.9991L16.1111 10.9895L16.0583 10.9789L16.0058 10.9674L15.9538 10.955L15.9023 10.9418L15.8512 10.9279L15.8006 10.9132L15.7505 10.8978L15.7008 10.8818L15.6517 10.8651L15.6029 10.8479L15.5547 10.8301L15.5069 10.8119L15.4596 10.7932L15.4128 10.7741L15.3664 10.7546L15.3204 10.7347L15.2748 10.7146L15.2297 10.6942L15.185 10.6735L15.1408 10.6527L15.0969 10.6318L15.0534 10.6107L15.0128 10.5908L15.0103 10.5895L14.9697 10.5694L14.9676 10.5683L14.927 10.548L14.9252 10.5471L14.8847 10.5266L14.8833 10.5259L14.8427 10.5053L14.7599 10.4629L14.7191 10.442L14.5999 10.381L14.561 10.3612L14.5594 10.3605L14.5223 10.3418L14.5204 10.3408L14.4841 10.3227L14.4818 10.3215L14.4463 10.3039L14.4436 10.3026L14.4088 10.2856L14.4057 10.2841L14.3718 10.2677L14.3683 10.2661L14.3351 10.2503L14.3312 10.2485L14.2968 10.2324L14.2608 10.2159L14.2251 10.1999L14.19 10.1845L14.1552 10.1696L14.1209 10.1554L14.0871 10.1418L14.0537 10.1287L14.0208 10.1164L13.9884 10.1046L13.9564 10.0935L13.9249 10.083L13.8939 10.0732L13.8634 10.0641L13.8333 10.0555L13.8037 10.0477L13.7745 10.0404L13.7458 10.0338L13.7174 10.0279L13.6895 10.0225L13.662 10.0177L13.6348 10.0135L13.6079 10.0099L13.5813 10.0069L13.5549 10.0044L13.5287 10.0025L13.5027 10.0011L13.4767 10.0002L13.4509 9.99992L13.425 10.0001L13.3991 10.0009L13.3731 10.0021L13.3469 10.0039L13.3206 10.0063L13.294 10.0092L13.2672 10.0127L13.2401 10.0168L13.2126 10.0214L13.1848 10.0266L13.1565 10.0325L13.1279 10.0389L13.0988 10.046L13.0693 10.0537L13.0393 10.0621L13.0089 10.0711L12.978 10.0808L12.9466 10.0911L12.9147 10.1021L12.8824 10.1137L12.8496 10.1259L12.8163 10.1388L12.7826 10.1523L12.7484 10.1664L12.7137 10.1812L12.6787 10.1964L12.6432 10.2123L12.6073 10.2287L12.5729 10.2446L12.5689 10.2465L12.5359 10.2621L12.5324 10.2638L12.4986 10.2801L12.4954 10.2816L12.4608 10.2985L12.458 10.2998L12.4227 10.3173L12.4203 10.3185L12.3841 10.3365L12.3821 10.3375L12.3452 10.3561L12.3436 10.3569L12.306 10.376L12.3047 10.3766L12.2663 10.3962L12.1046 10.479L12.0635 10.5001L12.022 10.5212L12.0206 10.5219L11.9801 10.5424L11.9784 10.5432L11.9357 10.5646L11.8927 10.586L11.8493 10.6074L11.8055 10.6287L11.7613 10.6498L11.7167 10.6709L11.6717 10.6917L11.6262 10.7123L11.5804 10.7326L11.5341 10.7527L11.4873 10.7724L11.4401 10.7917L11.3924 10.8106L11.3443 10.829L11.2957 10.8469L11.2466 10.8643L11.197 10.8811L11.147 10.8973L11.0965 10.9128L11.0455 10.9277L10.9941 10.9417L10.9422 10.955L10.8899 10.9674L10.8372 10.979L10.784 10.9896L10.7305 10.9993L10.6767 11.008L10.6225 11.0158L10.568 11.0224L10.5134 11.028L10.4585 11.0325L10.4035 11.0359L10.3483 11.0382L10.2931 11.0394L10.2379 11.0394L10.1828 11.0383L10.1277 11.036L10.0728 11.0327L10.018 11.0282L9.9635 11.0227L9.90925 11.0161L9.85529 11.0085L9.80167 10.9999L9.74842 10.9903L9.69556 10.9797L9.64311 10.9683L9.59109 10.956L9.53953 10.9429L9.48841 10.929L9.43777 10.9144L9.3876 10.8991L9.3379 10.8831L9.28868 10.8665L9.23993 10.8493L9.19165 10.8316L9.14385 10.8134L9.0965 10.7947L9.0496 10.7756L9.00315 10.7561L8.95715 10.7363L8.91158 10.7162L8.86643 10.6958L8.8217 10.6752L8.77737 10.6544L8.73346 10.6334L8.68993 10.6124L8.6468 10.5912L8.60406 10.57L8.56353 10.5497L8.56169 10.5487L8.52116 10.5283L8.51971 10.5275L8.47809 10.5064L8.23618 10.3826L8.19717 10.3628L8.19565 10.362L8.15852 10.3433L8.15663 10.3424L8.12027 10.3242L8.11799 10.323L8.0824 10.3054L8.07974 10.3041L8.04338 10.2863L8.00611 10.2683L7.96921 10.2508L7.93276 10.2337L7.89668 10.2172L7.86107 10.2012L7.82586 10.1857L7.79108 10.1708L7.75676 10.1565L7.72287 10.1428L7.68948 10.1298L7.65653 10.1173L7.62405 10.1055L7.59204 10.0943L7.56052 10.0838L7.52946 10.074L7.49888 10.0648L7.46877 10.0562L7.43912 10.0483L7.40991 10.041L7.38115 10.0344L7.3528 10.0283L7.32485 10.0229L7.29728 10.0181L7.27006 10.0139L7.24314 10.0102L7.21651 10.0071L7.19011 10.0046L7.16391 10.0026L7.13786 10.0012L7.11192 10.0003L7.08603 9.99992L7.06016 10.0001L7.03424 10.0008L7.00824 10.002L6.98211 10.0038L6.95579 10.0061L6.92925 10.009L6.90244 10.0124L6.87534 10.0164L6.8479 10.021L6.8201 10.0262L6.79191 10.032L6.76331 10.0384L6.73427 10.0454L6.7048 10.0531L6.67486 10.0614L6.64446 10.0704L6.61358 10.08L6.58223 10.0903L6.55041 10.1012L6.51811 10.1127L6.48534 10.1249L6.4521 10.1378L6.4184 10.1512L6.38425 10.1653L6.34966 10.18L6.31461 10.1952L6.27914 10.211L6.24325 10.2274L6.20693 10.2442L6.17021 10.2616L6.13309 10.2794L6.09555 10.2977L6.05762 10.3164L6.01933 10.3355L5.98147 10.3545L5.97981 10.3553L5.94221 10.3744L5.94094 10.375L5.6584 10.5195L5.65709 10.5202L5.61487 10.5415L5.57226 10.5629L5.52928 10.5843L5.48591 10.6057L5.44214 10.627L5.39797 10.6482L5.3534 10.6692L5.30841 10.69L5.263 10.7107L5.21716 10.731L5.17088 10.7511L5.12415 10.7708L5.07698 10.7902L5.02935 10.8091L4.98125 10.8276L4.93268 10.8455L4.88364 10.863L4.83412 10.8798L4.78413 10.8961L4.73367 10.9116L4.68273 10.9265L4.63134 10.9406L4.57949 10.954L4.52721 10.9665L4.4745 10.9781L4.42139 10.9888L4.36791 10.9986L4.31408 11.0074L4.25993 11.0152L4.20551 11.0219L4.15084 11.0276L4.09597 11.0322L4.04095 11.0357L3.98583 11.0381L3.93064 11.0393L3.87544 11.0394L3.82028 11.0384L3.7652 11.0363L3.71026 11.033L3.65549 11.0286L3.60095 11.0232L3.54667 11.0167L3.49269 11.0091L3.43904 11.0006L3.38576 10.9911L3.33287 10.9806L3.28039 10.9692L3.22833 10.957L3.17673 10.944L3.12558 10.9302L3.0749 10.9156L3.02469 10.9003L2.97496 10.8844L2.9257 10.8678L2.87691 10.8507L2.8286 10.833L2.78075 10.8148L2.73337 10.7962L2.68644 10.7771L2.63995 10.7577L2.59391 10.7379L2.54831 10.7178L2.50312 10.6974L2.45836 10.6768L2.414 10.6561L2.37005 10.6351L2.3265 10.614L2.28334 10.5929L2.24056 10.5717L2.19817 10.5504L2.15615 10.5292L2.11451 10.5081L2.07397 10.4874L1.9918 10.4453L2.6201 9.55449L2.70043 9.59565L2.74004 9.61587L2.77927 9.63579L2.81812 9.6554L2.85661 9.67466L2.8947 9.69354L2.93241 9.71202L2.96972 9.73006L3.00663 9.74764L3.04314 9.76474L3.07923 9.78132L3.1149 9.79738L3.15014 9.81288L3.18494 9.82781L3.2193 9.84216L3.25321 9.85589L3.28666 9.86902L3.31964 9.88151L3.35216 9.89336L3.3842 9.90458L3.41577 9.91514L3.44686 9.92505L3.47748 9.93432L3.50763 9.94293L3.53732 9.9509L3.56656 9.95823L3.59536 9.96493L3.62374 9.97101L3.65172 9.97647L3.67931 9.98134L3.70657 9.98561L3.73351 9.98931L3.76016 9.99244L3.78658 9.99501L3.81279 9.99703L3.83885 9.9985L3.8648 9.99944L3.89069 9.99985L3.91656 9.99973L3.94247 9.99908L3.96846 9.99789L3.99459 9.99616L4.02089 9.99389L4.04741 9.99107L4.07419 9.98768L4.10127 9.98372L4.12868 9.97917L4.15645 9.97403L4.18461 9.96829L4.21318 9.96192L4.24218 9.95494L4.27162 9.94731L4.30152 9.93905L4.33189 9.93013L4.36273 9.92057L4.39404 9.91036L4.42582 9.8995L4.45808 9.88799L4.49082 9.87584L4.52402 9.86306L4.55768 9.84965L4.59179 9.83563L4.62636 9.82101L4.66137 9.80582L4.69679 9.79006L4.73267 9.77376L4.76895 9.75693L4.80563 9.73962L4.84272 9.72182L4.88024 9.70356L4.91812 9.6849L4.9564 9.66584L4.9942 9.64684L4.99589 9.64599L5.03343 9.62699L5.03474 9.62633L5.27562 9.50309L5.31835 9.48133L5.36054 9.45996L5.40311 9.43856L5.44606 9.41716L5.4894 9.39579L5.53314 9.37449L5.57728 9.3533L5.62182 9.33226L5.66677 9.3114L5.71215 9.29076L5.75796 9.27038L5.8042 9.25029L5.85089 9.23054L5.89803 9.21116L5.94563 9.19219L5.99369 9.17368L6.04221 9.15566L6.09122 9.13818L6.1407 9.12128L6.19065 9.10499L6.24108 9.08937L6.29197 9.07444L6.34333 9.06026L6.39515 9.04687L6.4474 9.0343L6.50007 9.0226L6.55315 9.0118L6.6066 9.00194L6.6604 8.99306L6.71453 8.98519L6.76893 8.97835L6.82358 8.97258L6.87843 8.9679L6.93344 8.96432L6.98856 8.96186L7.04375 8.96053L7.09895 8.96033L7.15411 8.96126L7.2092 8.96332L7.26416 8.96649L7.31893 8.97077L7.3735 8.97614L7.4278 8.98256L7.4818 8.99002L7.53548 8.99849L7.58879 9.00793L7.64172 9.01832L7.69423 9.0296L7.74632 9.04176L7.79796 9.05474L7.84914 9.0685L7.89986 9.08302L7.95011 9.09824L7.99988 9.11412L8.04918 9.13063L8.098 9.14772L8.14635 9.16536L8.19424 9.1835L8.24166 9.2021L8.28862 9.22113L8.33514 9.24054L8.38122 9.2603L8.42686 9.28037L8.47208 9.30071L8.51688 9.32129L8.56126 9.34207L8.60525 9.36301L8.64883 9.38407L8.69202 9.40522L8.73483 9.42643L8.77725 9.44765L8.8193 9.46886L8.86097 9.49002L9.10323 9.61399L9.14231 9.63385L9.14377 9.63458L9.18101 9.65339L9.18285 9.65431L9.21933 9.67259L9.22154 9.67369L9.25727 9.69142L9.25986 9.6927L9.2963 9.71056L9.33362 9.72863L9.37057 9.74625L9.40713 9.7634L9.44326 9.78002L9.47897 9.79612L9.51423 9.81167L9.54907 9.82665L9.58346 9.84103L9.61741 9.85482L9.6509 9.868L9.68392 9.88054L9.71647 9.89244L9.74855 9.90371L9.78015 9.91432L9.81129 9.92429L9.84194 9.9336L9.87214 9.94227L9.90185 9.95029L9.93114 9.95767L9.95997 9.96442L9.98838 9.97055L10.0164 9.97606L10.044 9.98097L10.0713 9.98529L10.0983 9.98904L10.1249 9.99221L10.1514 9.99482L10.1776 9.99689L10.2037 9.99841L10.2296 9.99939L10.2555 9.99984L10.2814 9.99976L10.3073 9.99915L10.3333 9.998L10.3594 9.99632L10.3857 9.99409L10.4122 9.99131L10.4389 9.98797L10.466 9.98406L10.4934 9.97956L10.5211 9.97447L10.5492 9.96877L10.5778 9.96245L10.6067 9.95552L10.6361 9.94794L10.666 9.93973L10.6963 9.93087L10.7271 9.92136L10.7584 9.91119L10.7902 9.90038L10.8224 9.88893L10.8551 9.87683L10.8882 9.86409L10.9219 9.85074L10.9559 9.83677L10.9905 9.8222L11.0254 9.80706L11.0609 9.79133L11.0967 9.77507L11.1329 9.75829L11.1696 9.74101L11.2066 9.72325L11.2427 9.70574L11.2807 9.68702L11.2832 9.68579L11.3192 9.6679L11.3213 9.66685L11.358 9.64841L11.3597 9.64754L11.3972 9.62859L11.3985 9.6279L11.6806 9.48366L11.6819 9.48303L11.724 9.46166L11.7666 9.44026L11.8095 9.41886L11.8528 9.39749L11.8965 9.37618L11.9406 9.35499L11.9851 9.33393L12.0301 9.31306L12.0754 9.29239L12.1212 9.27199L12.1674 9.25188L12.214 9.2321L12.2611 9.21269L12.3087 9.19369L12.3567 9.17514L12.4052 9.15708L12.4542 9.13955L12.5036 9.1226L12.5535 9.10626L12.6039 9.09058L12.6548 9.0756L12.7061 9.06136L12.7579 9.0479L12.8101 9.03527L12.8627 9.0235L12.9158 9.01262L12.9692 9.00269L13.023 8.99373L13.0771 8.98578L13.1315 8.97886L13.1861 8.973L13.2409 8.96823L13.2959 8.96457L13.3511 8.96202L13.4062 8.96059L13.4614 8.96045Z" />
  <path d="M10.2005 3.75842C10.4767 3.75842 10.7005 3.98228 10.7005 4.25842V14.4612C10.7005 14.7374 10.4767 14.9612 10.2005 14.9612C9.92437 14.9612 9.70052 14.7374 9.70052 14.4612L9.70052 4.25842C9.70052 3.98228 9.92437 3.75842 10.2005 3.75842Z" />
</svg>

<svg xmlns="http://www.w3.org/2000/svg" class="icon icon-accordion icon-perfume" viewBox="0 0 20 20"><path fill-rule="evenodd" d="M14.342 4.011c-.357-.276-1.68-.253-3.011-.229a63 63 0 0 1-1.101.013c-.344 0-.713-.009-1.087-.018-1.242-.03-2.53-.062-3.078.234-2.583 1.395-4.267 4.505-4.267 7.572 0 3.135 1.826 5.857 4.504 7.225a8.6 8.6 0 0 0 3.928.937 8.6 8.6 0 0 0 3.927-.937c2.679-1.368 4.504-4.09 4.504-7.225 0-3.067-1.736-6.177-4.32-7.572m-.543.844a2 2 0 0 0-.196-.035 8 8 0 0 0-.897-.05c-.436-.005-.872.003-1.324.011-.37.007-.751.014-1.152.014-.357 0-.738-.01-1.109-.018l-.094-.002c-.406-.01-.798-.019-1.163-.016a8 8 0 0 0-.933.049 2 2 0 0 0-.293.052 1 1 0 0 0-.098.031c-2.22 1.2-3.742 3.946-3.742 6.692 0 2.733 1.59 5.125 3.959 6.334a7.6 7.6 0 0 0 3.473.828c1.257 0 2.438-.3 3.472-.828 2.369-1.209 3.96-3.601 3.96-6.334 0-2.734-1.565-5.488-3.795-6.692zM6.54 4.89"/><path fill-rule="evenodd" d="M10.72 1.189h-.98a1 1 0 0 0-1 1v1.564h2.98V2.189a1 1 0 0 0-1-1m-.98-1a2 2 0 0 0-2 2v2.564h4.98V2.189a2 2 0 0 0-2-2z"/><path d="m13.461 8.96.056.001.055.002.055.003.054.004.055.006.054.006.054.007.054.009.053.01.053.01.053.01.052.013.052.013.051.013.05.015.051.015.05.016.05.016.048.017.048.018.048.018.048.019.047.019.046.019.046.02.046.02.045.02.045.02.045.021.044.021.043.021.043.022.043.02.043.022.042.021.042.021.04.021.123.063.118.06.002.001.037.019h.002l.036.02h.002l.036.018.003.001.035.017.003.002.034.016.003.002.034.016.003.002.035.016.036.017.036.016.035.015.035.015.035.015.034.014.033.013.033.013.033.012.032.01.032.012.03.01.031.009.03.009.03.008.03.007.029.007.028.006.028.006.028.005.027.004.027.004.027.003.026.003.026.002.026.001.026.001h.104l.026-.003.026-.002.027-.002.027-.004.027-.004.027-.004.028-.005.028-.006.028-.006.03-.007L17 9.95l.03-.009.03-.008.03-.01.032-.01.031-.01.033-.012.032-.012.034-.013.033-.013.034-.014.035-.015.035-.015.035-.015.036-.017.038-.017.033-.016.003-.001.034-.017.003-.001.035-.017.003-.001.035-.017.002-.002.036-.018h.002l.037-.019h.002l.037-.02h.001l.038-.02.041-.02.627.891-.04.02-.043.022-.041.021h-.002l-.04.021-.003.001-.04.02-.003.002-.043.021-.044.021-.044.021-.045.021-.045.021-.046.02-.045.021-.047.02-.047.02-.047.02-.047.018-.049.019-.048.017-.05.018-.049.017-.05.016-.05.015-.052.015-.051.014-.052.013-.052.012-.053.012-.053.01-.054.01-.054.009-.054.007-.054.007-.055.005-.055.005-.055.003-.055.002-.055.001h-.111l-.055-.003-.055-.004-.054-.004-.055-.006-.054-.007-.054-.007-.054-.009-.053-.01-.053-.01-.052-.012-.052-.012-.052-.013-.05-.014-.051-.015-.05-.015-.05-.016-.05-.017-.048-.017-.048-.018-.048-.018-.047-.019-.047-.019-.047-.02-.046-.02-.045-.02-.045-.02-.045-.02-.044-.021-.044-.021-.044-.021-.04-.02-.003-.002-.04-.02h-.002l-.041-.021h-.002l-.04-.021-.002-.001-.04-.02-.083-.043-.04-.021-.12-.061-.039-.02h-.002l-.037-.02h-.002l-.036-.018-.002-.002-.036-.017-.002-.001-.035-.017-.003-.002-.034-.016-.004-.002-.033-.016-.004-.002-.034-.016-.036-.016-.036-.016-.035-.015-.035-.015-.034-.015-.034-.013-.033-.013-.033-.013-.033-.011-.032-.011-.031-.011-.031-.01-.03-.009-.03-.008-.03-.008-.03-.008-.028-.006-.029-.006-.027-.005-.028-.005-.027-.005-.027-.003-.027-.003-.026-.003-.026-.002h-.026L13.477 10h-.078l-.026.002-.026.002-.026.002-.027.003-.027.004-.027.004-.027.004-.028.006-.029.006-.028.006-.03.007-.029.008-.03.008-.03.01-.031.009-.031.01-.032.011-.033.012-.032.012-.034.013-.033.013-.035.014-.034.015-.035.015-.036.016-.036.017-.034.016-.004.002-.033.015-.004.002-.033.016-.004.002-.034.017h-.003l-.035.018-.003.002-.036.017-.002.002-.037.018h-.001l-.038.02h-.001l-.039.02-.161.083-.042.021-.041.021h-.001l-.04.021-.003.001-.042.022-.043.021-.044.021-.043.022-.045.02-.044.022-.045.02-.046.021-.046.02-.046.02-.047.02-.047.02-.048.019-.048.018-.048.018-.05.017-.049.017-.05.016-.05.016-.051.015-.052.014-.052.013-.052.012-.053.012-.053.01-.054.01-.053.009-.054.008-.055.006-.055.006-.054.005-.056.003-.055.002-.055.001h-.11l-.055-.003-.055-.003-.055-.005-.055-.005-.054-.007-.054-.008L9.802 11l-.054-.01-.052-.01-.053-.012-.052-.012-.051-.013-.052-.014-.05-.015-.05-.015-.05-.016-.05-.016-.048-.018-.048-.017-.048-.019-.047-.018-.047-.02-.047-.019-.046-.02-.045-.02-.046-.02-.044-.02-.045-.022-.044-.02-.043-.022-.043-.02-.043-.022-.04-.02-.002-.001-.04-.02-.002-.002-.042-.02-.242-.124-.039-.02-.001-.001-.037-.019h-.002l-.037-.019-.002-.001-.036-.018H8.08l-.037-.019-.037-.018-.037-.017-.036-.017-.036-.017-.036-.016-.035-.015-.035-.015-.034-.014-.034-.014-.034-.013-.032-.013-.033-.012-.032-.01-.031-.011-.032-.01-.03-.01-.03-.008-.03-.008-.03-.007-.028-.007-.028-.006-.028-.005-.028-.005-.027-.004-.027-.004-.026-.003-.027-.002-.026-.002L7.138 10h-.104l-.026.002-.026.002-.026.002-.027.003-.027.003-.027.004-.027.005-.028.005-.028.006-.029.006-.029.007-.03.008-.03.008-.03.01-.03.009-.032.01-.032.011-.032.012-.033.012-.033.013-.034.013-.034.014-.034.015-.035.015-.036.016-.036.016-.036.017-.037.018-.037.017-.037.019-.038.018-.039.02-.038.018-.001.001-.038.02h-.001l-.283.145-.043.021-.043.022-.043.021-.043.022-.044.021-.044.021-.045.021-.045.021-.045.02-.046.021-.046.02-.047.02-.047.02-.048.018-.048.019-.048.018-.05.017-.049.017-.05.016-.05.016-.051.014-.052.015-.052.013-.052.012-.053.012-.053.01-.053.01-.054.01-.054.007-.054.007-.055.006-.055.004-.055.004-.055.002-.055.001H3.82l-.055-.003-.055-.003-.055-.004-.054-.006-.054-.006-.054-.008-.054-.008-.053-.01-.053-.01-.053-.012-.052-.012-.051-.013-.051-.014-.051-.014-.05-.016-.05-.016-.05-.016-.048-.017-.048-.018-.048-.018-.048-.019-.047-.019-.046-.02-.046-.02-.046-.02-.045-.02-.045-.02-.044-.02-.044-.022-.044-.021-.043-.021-.042-.021-.043-.022-.042-.02-.041-.022-.041-.02-.082-.043.628-.89.08.04.04.02.04.02.038.02.039.02.038.019.037.018.038.018.037.018.036.017.036.016.036.016.035.016.035.015.034.014.034.014.034.013.033.013.032.011.032.012.032.01.03.01.031.01.03.008.03.008.03.007.028.007.029.006.028.005.027.005.028.005.027.003.026.003.027.003.026.002.026.002h.103l.026-.001.027-.002.026-.002.026-.003.027-.003.027-.004.028-.005.027-.005.029-.006.028-.006.03-.007.029-.008.03-.008.03-.009.03-.01.032-.01.032-.01.032-.012.033-.012.033-.013.034-.013.034-.014.034-.015.035-.015.036-.016.036-.016.036-.017.037-.017.037-.018.037-.018.038-.02.038-.018.038-.02h.002l.037-.019h.002l.24-.124.043-.022.043-.021.042-.021.043-.022.043-.021.044-.022.044-.02.045-.022.045-.02.045-.021.046-.02.046-.02.047-.02.047-.02.048-.019.048-.018.048-.018.05-.018.049-.017.05-.016.05-.016.051-.015.051-.014.052-.013.052-.013.053-.011.053-.011.054-.01.053-.009.055-.008.054-.007.055-.005.054-.005.055-.004.056-.002.055-.001h.11l.055.002.055.003.055.005.054.005.055.007.054.007.053.008.054.01.053.01.052.012.052.012.052.013.051.014.05.014.051.015.05.016.05.017.048.017.048.017.048.019.048.018.047.02.046.019.046.02.046.02.045.02.045.02.044.021.044.021.044.021.043.021.043.021.042.022.042.02.042.022.242.124.04.02.038.02h.002l.036.019h.003l.035.018.003.002.036.018.038.018.037.017.036.017.036.017.036.016.035.016.035.015.034.014.034.014.034.013.033.013.032.011.033.012.031.01.031.01.03.01.031.008.03.008.03.008.028.006.028.007.028.005.028.005.027.004.027.004.027.003.026.003.027.002.026.001.026.001h.077l.026-.001.026-.002.027-.002.026-.003.027-.003.027-.004.027-.004.028-.006.028-.005.029-.007.029-.006.03-.008.029-.008.03-.01.031-.009.031-.01.032-.01.032-.012.033-.012.033-.013.034-.013.034-.014.035-.015.034-.015.036-.016.036-.016.036-.017.037-.017.037-.018.036-.017.038-.019.002-.001.036-.018.002-.001.037-.019h.002l.037-.02h.002l.282-.144v-.001l.043-.021.043-.022.043-.021.043-.022.043-.02.045-.022.044-.021.045-.02.045-.022.046-.02.046-.02.047-.02.047-.02.048-.018.048-.019.048-.018.05-.017.049-.017.05-.017.05-.015.05-.015.052-.015.052-.013.052-.013.053-.011.053-.011.053-.01.054-.01.054-.007.055-.007.054-.006.055-.005.055-.003.055-.003.055-.001z"/><path d="M10.2 3.758a.5.5 0 0 1 .5.5v10.203a.5.5 0 1 1-1 0V4.258a.5.5 0 0 1 .5-.5"/></svg>
